gama.ui.shared/icons_svg/dark/agents/action.focus.svg

<svg height="25" viewBox="-886.997 -3602.725 25 25" width="25" xmlns="http://www.w3.org/2000/svg"><g fill="none"><circle cx="-874.497" cy="-3590.225" fill="#666" r="12"/><circle cx="-874.497" cy="-3590.225" r="12" stroke="#fff" stroke-linecap="round" stroke-linejoin="round" stroke-width=".25"/><path d="m-877.193-3589.8612h-4.9403c-.2009 0-.3637-.1628-.3637-.3638 0-.2007.1628-.3635.3637-.3635h4.9403l-1.5611-1.5611c-.142-.142-.142-.3724 0-.5144s.3723-.142.5143 0l2.1818 2.182c.142.142.142.3722 0 .5142l-2.1818 2.1818c-.142.142-.3723.142-.5143 0s-.142-.372 0-.514zm2.696 2.6962-1.561 1.561c-.142.142-.3723.142-.5143 0s-.142-.3724 0-.5144l2.1818-2.1816c.142-.142.3723-.142.5143 0l2.1818 2.1816c.142.142.142.3724 0 .5144s-.3722.142-.5142 0l-1.5611-1.561v4.213c0 .2007-.1628.3635-.3636.3635-.2009 0-.3637-.1628-.3637-.3635zm3.4234-3.4235h4.213c.2008 0 .3636.1628.3636.3635 0 .201-.1628.3638-.3636.3638h-4.213l1.561 1.5612c.142.142.142.372 0 .514s-.3722.142-.5142 0l-2.1818-2.1818c-.1421-.142-.1421-.3722 0-.5142l2.1818-2.182c.142-.142.3722-.142.5142 0s.142.3724 0 .5144zm-3.4234-2.6961v-4.213c0-.2008.1628-.3636.3637-.3636.2008 0 .3636.1628.3636.3636v4.213l1.5611-1.561c.142-.1421.3722-.1421.5142 0 .142.142.142.3722 0 .5142l-2.1818 2.1818c-.142.142-.3723.142-.5143 0l-2.1818-2.1818c-.142-.142-.142-.3722 0-.5142.142-.1421.3723-.1421.5143 0z" fill="#c0e0ff"/></g></svg>

<?xml version="1.0" encoding="UTF-8" standalone="no"?>
<!DOCTYPE svg PUBLIC "-//W3C//DTD SVG 1.1//EN" "http://www.w3.org/Graphics/SVG/1.1/DTD/svg11.dtd">
<svg xmlns="http://www.w3.org/2000/svg" xmlns:xl="http://www.w3.org/1999/xlink" version="1.1" xmlns:dc="http://purl.org/dc/elements/1.1/" viewBox="-886.997 -3602.725 24.999996 25" width="24.999996" height="25">
  <defs/>
  <g id="SOURCES" stroke-opacity="1" fill="none" stroke="none" fill-opacity="1" stroke-dasharray="none">
    <title>SOURCES</title>
    <g id="SOURCES_Dark">
      <title>Dark</title>
      <g id="Graphic_11557">
        <circle cx="-874.497" cy="-3590.225" r="12.000018268838" fill="#666"/>
        <circle cx="-874.497" cy="-3590.225" r="12.000018268838" stroke="white" stroke-linecap="round" stroke-linejoin="round" stroke-width=".25"/>
      </g>
      <g id="Graphic_11556">
        <path d="M -877.193 -3589.8612 L -882.1333 -3589.8612 C -882.3342 -3589.8612 -882.497 -3590.024 -882.497 -3590.225 C -882.497 -3590.4257 -882.3342 -3590.5885 -882.1333 -3590.5885 L -877.193 -3590.5885 L -878.7541 -3592.1496 C -878.8961 -3592.2916 -878.8961 -3592.522 -878.7541 -3592.664 C -878.6121 -3592.806 -878.3818 -3592.806 -878.2398 -3592.664 L -876.058 -3590.482 C -875.916 -3590.34 -875.916 -3590.1098 -876.058 -3589.9678 L -878.2398 -3587.786 C -878.3818 -3587.644 -878.6121 -3587.644 -878.7541 -3587.786 C -878.8961 -3587.928 -878.8961 -3588.158 -878.7541 -3588.3 Z M -874.497 -3587.165 L -876.058 -3585.604 C -876.2 -3585.462 -876.4303 -3585.462 -876.5723 -3585.604 C -876.7143 -3585.746 -876.7143 -3585.9764 -876.5723 -3586.1184 L -874.3905 -3588.3 C -874.2485 -3588.442 -874.0182 -3588.442 -873.8762 -3588.3 L -871.6944 -3586.1184 C -871.5524 -3585.9764 -871.5524 -3585.746 -871.6944 -3585.604 C -871.8364 -3585.462 -872.0666 -3585.462 -872.2086 -3585.604 L -873.7697 -3587.165 L -873.7697 -3582.952 C -873.7697 -3582.7513 -873.9325 -3582.5885 -874.1333 -3582.5885 C -874.3342 -3582.5885 -874.497 -3582.7513 -874.497 -3582.952 L -874.497 -3587.165 Z M -871.0736 -3590.5885 L -866.8606 -3590.5885 C -866.6598 -3590.5885 -866.497 -3590.4257 -866.497 -3590.225 C -866.497 -3590.024 -866.6598 -3589.8612 -866.8606 -3589.8612 L -871.0736 -3589.8612 L -869.5126 -3588.3 C -869.3706 -3588.158 -869.3706 -3587.928 -869.5126 -3587.786 C -869.6546 -3587.644 -869.8848 -3587.644 -870.0268 -3587.786 L -872.2086 -3589.9678 C -872.3507 -3590.1098 -872.3507 -3590.34 -872.2086 -3590.482 L -870.0268 -3592.664 C -869.8848 -3592.806 -869.6546 -3592.806 -869.5126 -3592.664 C -869.3706 -3592.522 -869.3706 -3592.2916 -869.5126 -3592.1496 L -871.0736 -3590.5885 Z M -874.497 -3593.2846 L -874.497 -3597.4976 C -874.497 -3597.6984 -874.3342 -3597.8612 -874.1333 -3597.8612 C -873.9325 -3597.8612 -873.7697 -3597.6984 -873.7697 -3597.4976 L -873.7697 -3593.2846 L -872.2086 -3594.8456 C -872.0666 -3594.9877 -871.8364 -3594.9877 -871.6944 -3594.8456 C -871.5524 -3594.7036 -871.5524 -3594.4734 -871.6944 -3594.3314 L -873.8762 -3592.1496 C -874.0182 -3592.0076 -874.2485 -3592.0076 -874.3905 -3592.1496 L -876.5723 -3594.3314 C -876.7143 -3594.4734 -876.7143 -3594.7036 -876.5723 -3594.8456 C -876.4303 -3594.9877 -876.2 -3594.9877 -876.058 -3594.8456 L -874.497 -3593.2846 Z" fill="#c0e0ff"/>
      </g>
    </g>
  </g>
</svg>
